X:21
T:Gudmunds Kalle's Polska (Rattvik)
Z:2000 Brian Wilson 
M:3/4
L:1/8
K:D
|: A>A f2 e>d | dB GB GB | ef g2 f>e | ec A2 (3Ace
|  a2 {a}b2 a2 | e2 g/a/g/e/ f>g | f>e dB G>B |[1 BA A4 :|[2 BA A3 (B ||
P:B
|: A3/2)(G/ FE) DF | (Ad) f2 f>g | f>e (3Ace (3Ace | f>e dB A3/2(B/
|  A3/2)(G/ FE) DF | (Ad) f2 f>g | f>e (3Ace a>c |[1 d2 d3 B :|[2 d2 d4 ||
